X:1
T:Planxty Fanny Powers
C:Turlough O'Carolan
R:planxty
M:3/4
L:1/4
K:G
D | G2D | GAB | c2B | A2G | FED | DED | F2G | A2c |
B>AG | Bcd | e2A | A>BG | FED | DGF | G3 | G2 ::
d|dB/c/d | dB/c/d | G>AG | GBd | ec/d/e | ec/d/e | A>BA | Adc |
B>cd | efg | fga | d2c | B>AG | AcF | G3 | G2 :|
